!!!OTL: WAS GLAENZT DORT VOM WALDE IM SONNENSCHEIN
!!!ARE: Europa, Mitteleuropa, Deutschland
!!!SCT: B0063
!!!YEM: Copyright 1995, estate of Helmut Schaffrath.
**kern
*ICvox
*Ivox
*M6/8
*k[b-e-]
*B-:
{8f
=1
8f
8f
8f
8f
8d
8f
=2
8f
8b-
8f
4f}
{8b-
=3
8b-
8b-
8b-
8b-
8f
8b-
=4
2.dd
=5
4.b-
4r}
{8e-
=6
8e-
8e-
8e-
8e-
8e-
8g
=7
8.a-
16a-
8a-
4g}
{8b-
=8
8b-
8b-
8b-
8b-
8g
8b-
=9
8b-
8ee-
8b-
4b-}
{8b-
=10
8b-
8b-
8b-
8b-
8b-
8b-
=11
4.a
4cc}
{8f
=12
4.f
4f
8f
=13
8g-
8f
8en
4f
8a
=14
4.cc
4.r}
=15
{2.b-
=16
2.b-
=17
4.dd
4.dd
=18
4.ff
4.dd
=19
8.cc
16cc
8cc
8cc
8b-
8cc
=20
[2dd
8dd]
8r
=21
=22
2.b-
=23
2.b-
=24
4.dd
4.dd}
=25
{4.ff
4.dd
=26
8.cc
16cc
8cc
8cc
8b-
8cc
=27
[2dd
8dd]
8r}
==
!!!AGN: Kriegs -, Sieges -, Soldaten - Lied
!!!ONB: ESAC (Essen Associative Code) Database: BOEHME
!!!AMT: compound duple
!!!AIN: vox
!!!EED: Helmut Schaffrath
!!!EEV: 1.0
*-
!!!title: @{OTL} [@{SCT}]
